X: 3212
T: Beeswing, The
R: hornpipe
M: 4/4
K: Gminor
(3FGA|:BfdB AecA|(3FGF (3BFE DE (3FED|EGce DFBd|(3cdc (3BAG F2 (3FGA|
BfdB AecA|(3FGF (3BFE DE (3FED|EGce DFBd|1 (3cde Ac B2 (3FGA:|2 (3cde Ac B f (3f=e_e||
|:dBfd bfdB|cAfc afcA|GEGB efde|(3cdc (3BAG F2 (3FGA|
BfdB AecA|(3FGF (3BFE DE (3FED|EGce DFBd|1 (3cde Ac B f (3f=e_e:|2 (3cde Ac B2 (3FGA||

